bottle-wine.svg

<svg fill="currentColor" viewBox="0 0 24 24"><path d="M10 22a1 1 0 0 1-1-1V11c0-2 1-3.75 2-4V2.5a.5.5 0 0 1 .5-.5h1a.5.5 0 0 1 .5.5V7c1 .25 2 2 2 4v10a1 1 0 0 1-1 1z"/></svg>

<svg  viewBox="0 0 24 24" fill="currentColor"><path  d="M10,22A1,1 0 0,1 9,21V11C9,9 10,7.25 11,7V2.5A0.5,0.5 0 0,1 11.5,2H12.5A0.5,0.5 0 0,1 13,2.5V7C14,7.25 15,9 15,11V21A1,1 0 0,1 14,22H10Z"/></svg>
